X:1
T:Auld Resting Chair, Da
C: Tom Anderson
O:Shetland
R:Air
M:C
K:G
L:1/4
D|\
"G"B>c "D"A>B|"G"GDB,G,|"Am"CA "G"B,G|"A"^C/E/ A//G3/4 "D"FD|
"G"B>c "D"A>B|"G"GDB,G,|"Am"CA "G"B,F|"G" G3 :|
d|\
"G"c/B/A/G/ g>d|"C"e{f}g "G"dB|"C"c>d "G"BG|"Am"E A//G3/4 "D"FD|
c//B3/4A//G3/4 g>d|"C"e{f}g "G"dB|"C"c3/2 d//e// "D"dF|"G"G3 d|
!tenuto!c/!tenuto!B/!tenuto!A/!tenuto!G/ g>d|"C"eg "G"dB|"C"c>d "G"BG|^C/E/A//G3/4 "D"FD|
"G"B>c "D"A>B|"G"GDB,G,|"Am"{B,}CA, "D"DF|"G"G4|]
